X:1
T:Title
%%score { 1 | ( 2 3 ) }
L:1/8
M:4/4
K:Bb
V:1 treble nm="Grand Piano"
V:2 bass 
V:3 bass 
V:1
 z4 z2 z[Q:1/4=100] [DF] | [DB]2 [FA][EG] [DF]2 [DB][Ec] | [Fd]2 [DB][EG] [DF] [B,D]2 [DF] | %3
 [EG]2 [GB][EG] [DF]2 [B,D][DF] | F2 ED C3 F | [DF]2 [DB][Ec] [Fd]2 [DB][DF] | %6
 [EG]2 [GB][EG] [EG] [DF]2 [CE] | [B,D]2 [DF][DF] [EG][GB][GB][^Fc] |[M:7/8] [Fd]Bc A [DB]3 | %9
[M:1/4] Bc |[M:4/4] d2 [DB][EG] [DF]2 AB | c2 Bc d3 [B,DF] | %12
 [B,EG]2 [B,GB][B,EG] [B,DF]2[K:bass] [F,CE][F,B,D] | [A,C]6 [F,F][F,EF] | %14
[M:3/4][K:treble] [DB]2 [EA][DB] [Fc]2 |[M:1/4] [FB]c |[M:4/4] d2 cd e2 d[Ge] | %17
 .[Ff]2 [B,GB]G FBcA |[M:7/8] [DB]-[DB]-[DB]- [DB]3 z |] %19
V:2
 z4 z2 z [B,,B,] | [B,,F,]2 [B,,F,][B,,B,] [B,,B,]2 [B,,F,][B,,F,] | %2
 [B,,B,]2 [B,,B,][B,,B,] [B,,B,] [B,,F,]2 [B,,B,] | [E,B,]2 [E,B,][E,B,] [B,,B,]2 [B,,F,][B,,B,] | %4
 [F,B,D]2 [F,C][F,B,] [F,A,]3 [F,A,E] | [B,,B,]2 [B,,F,][B,,F,] [B,,B,]2 [B,,B,][B,,B,] | %6
 [E,B,]2 [E,B,][E,B,] [B,,B,] [B,,B,]2 [B,,F,] | [B,,F,]2 [B,,B,][B,,B,] [E,B,]2 [E,B,][E,B,] | %8
[M:7/8] z D[F,A,E] [F,E] [B,,F,]3 |[M:1/4][K:treble] [B,D][B,E] | %10
[M:4/4] [B,F]2[K:bass] [B,,F,][B,,B,] [B,,B,]2 [F,CF][F,DF] | %11
 [F,EF]2 [F,DF][F,A,F] [B,F]3[K:bass] B,, | E,2 E,E, B,,2 A,,B,, | z4 F,2 z2 | %14
[M:3/4] [B,,F,]2 [C,F,][B,,F,] [F,A,]2 |[M:1/4] [D,B,][K:treble][F,A,F] | %16
[M:4/4] [B,F]2 [A,CF][_A,B,F] [G,B,E]2[K:bass] [F,B,F][E,B,] | %17
 z[K:treble] d[K:bass]E,[E,B,E] [F,B,D]2 [F,B,E][F,E] | %18
[M:7/8] [B,,F,]-[B,,F,]-[B,,F,]- [B,,F,]3 z |] %19
V:3
 x8 | x8 | x8 | x8 | x8 | x8 | x8 | x8 |[M:7/8] [F,B,]2 z z z z2 |[M:1/4][K:treble] x2 | %10
[M:4/4] x2[K:bass] x6 | x7[K:bass] x | x8 | F,4 z E,D,D, |[M:3/4] x6 |[M:1/4] x[K:treble] x | %16
[M:4/4] x6[K:bass] x2 | [D,B,]2[K:treble][K:bass] z2 z4 |[M:7/8] x7 |] %19

